Flat-Remix-Dark/apps/scalable/color-picker.svg

<svg xmlns="http://www.w3.org/2000/svg" width="384pt" height="384pt" version="1.1" viewBox="0 0 384 384"> <path style="fill:rgb(90.196%,90.196%,90.196%)" d="M 311.37131,41.953258 C 294.98068,25.531735 271.39986,30.523834 253.6613,48.295836 L 109.56613,192.66259 C 97.694554,204.55654 84.567219,210.00843 87.861803,224.38598 L 34.493769,277.8546 c -17.738582,17.77199 -12.906079,51.23095 3.484564,67.65249 16.394736,16.42564 49.786253,21.26765 67.529737,3.49072 l 53.3631,-53.4637 c 14.35547,3.29594 19.79215,-9.85129 31.66414,-21.74975 L 334.63047,129.41761 c 17.73856,-17.77199 22.7258,-41.397638 6.33064,-57.818772 z"/> <path style="fill:rgb(100.000%,100.000%,100.000%)" d="m 293.38085,89.623222 c 12.37182,12.395118 14.88328,29.982868 5.60057,39.283078 L 198.16071,229.91706 c -9.28274,9.29503 -26.83224,6.784 -39.20919,-5.61628 -12.37183,-12.39515 -14.88331,-29.98291 -5.60058,-39.27794 L 254.17166,84.012103 c 9.28272,-9.300219 26.83736,-6.789165 39.20919,5.611119 z m 0,0"/> <path d="M 358.23828 104.5293 C 350.77243 104.54055 343.92462 106.97801 338.89648 112.01562 L 204.46875 246.69727 C 198.30245 252.87173 196.04191 261.79056 197.36328 271.23047 C 198.2103 265.65816 200.54869 260.62252 204.46875 256.69727 L 338.89648 122.01562 C 351.27344 109.61533 374.67807 112.96433 391.17383 129.49805 C 399.44904 137.78884 404.41556 147.8217 405.74805 157.32812 C 407.57179 145.30615 402.44247 130.78791 391.17383 119.49805 C 381.37947 109.68116 369.1499 104.51285 358.23828 104.5293 z" transform="scale(0.75)" style="opacity:0.2"/> <path d="M 467.63477 121.80469 C 466.12392 135.86886 458.44463 150.26272 446.17383 162.55664 L 254.04688 355.04492 C 238.21756 370.90952 230.96875 388.4395 211.82812 384.04492 L 140.67773 455.33008 C 117.01976 479.03265 72.498325 472.57663 50.638672 450.67578 C 39.500654 439.51676 32.377852 422.45742 31.189453 405.27344 C 29.756365 425.59795 37.333228 447.34525 50.638672 460.67578 C 72.498325 482.57663 117.01975 489.03265 140.67773 465.33008 L 211.82812 394.04492 C 230.96875 398.4395 238.21756 380.90952 254.04688 365.04492 L 446.17383 172.55664 C 461.37945 157.32237 469.54176 138.86429 467.63477 121.80469 z M 117.03906 288.62695 C 116.96937 288.9145 116.89512 289.19896 116.83789 289.49219 L 117.14844 289.18164 C 117.10526 288.99323 117.07803 288.81309 117.03906 288.62695 z" transform="scale(0.75)" style="opacity:0.3"/> <path d="M 384.94531 42.617188 C 369.04723 42.262633 352.25788 50.325023 338.21484 64.394531 L 146.08789 256.88281 C 130.41471 272.58555 113.11338 279.87497 117.03906 298.62695 C 119.94492 286.63799 133.53688 279.45748 146.08789 266.88281 L 338.21484 74.394531 C 361.86627 50.698531 393.30795 44.04214 415.16211 65.9375 L 454.61523 105.46484 C 462.4214 113.28338 466.57554 122.3291 467.63477 131.80469 C 469.03601 118.76078 465.13396 106.00024 454.61523 95.464844 L 415.16211 55.9375 C 406.28386 47.04251 395.82295 42.859777 384.94531 42.617188 z M 116.83789 299.49219 L 45.992188 370.47266 C 34.39474 382.09195 30.046065 398.74029 31.189453 415.27344 C 32.110212 402.21494 36.740409 389.74186 45.992188 380.47266 L 117.14844 309.18164 C 116.32234 305.57656 116.27202 302.39178 116.83789 299.49219 z" transform="scale(0.75)" style="fill:rgb(100.000%,100.000%,100.000%);opacity:0.3"/> <path d="M 393.14648 30.369141 A 79.365511 65.627993 45.287235 0 0 352.17969 47.072266 A 79.365511 65.627993 45.287235 0 0 350.92578 48.443359 L 320.72266 78.703125 C 318.10282 81.327898 316.0981 84.413506 314.67969 87.855469 L 297.98047 71.123047 L 297.97852 71.123047 C 294.37829 67.515966 288.60543 67.459302 285.07422 70.990234 L 259.51172 96.599609 C 255.98595 100.136 256.04428 105.92033 259.64453 109.52734 L 403.02148 253.17578 C 406.62146 256.77903 412.39756 256.84063 415.92188 253.30273 L 441.48828 227.69531 C 445.01429 224.1627 444.95508 218.3731 441.35547 214.76953 L 423.66406 197.04492 C 427.09905 195.62391 430.17898 193.61447 432.79883 190.99023 L 463.39062 160.33789 C 463.56684 160.16132 463.72385 159.97175 463.89453 159.79102 A 79.365511 65.627993 45.287235 0 0 464.31445 159.41797 A 79.365511 65.627993 45.287235 0 0 454.60938 56.794922 A 79.365511 65.627993 45.287235 0 0 393.14648 30.369141 z" transform="scale(0.75)" style="fill:rgb(100.000%,78.039%,18.823%)"/> <path d="m 235.46469,177.30322 c -4.19968,-4.20933 -10.15719,-5.06395 -13.30826,-1.90694 l -17.7659,17.79938 c -4.76654,4.77412 -12.40923,5.03412 -17.48803,0.59498 l -0.0705,0.0706 c -12.27585,-11.32045 -28.94393,-13.38521 -37.9091,-4.40315 L 48.102256,290.46881 c -9.283058,9.29468 -6.770246,26.88213 5.601575,39.27726 12.376956,12.40028 29.92636,14.9129 39.209097,5.61786 L 237.36801,190.63659 c 3.15106,-3.15701 2.29633,-9.12577 -1.90334,-13.33335 z" style="fill:rgb(21.176%,48.235%,94.117%)"/> <path d="M 317.9043 242.26172 C 317.52785 242.95937 317.06293 243.60787 316.49023 244.18164 L 123.88477 437.15234 C 111.50779 449.54573 88.108069 446.19582 71.605469 429.66211 C 63.328576 421.36962 58.362921 411.33329 57.03125 401.82617 C 55.204445 413.84722 60.334365 428.36977 71.605469 439.66211 C 88.108069 456.19582 111.50779 459.54573 123.88477 447.15234 L 316.49023 254.18164 C 319.35813 251.30834 319.73343 246.68943 317.9043 242.26172 z" transform="scale(0.75)" style="opacity:0.3"/> <path d="m 193.7959,80.979492 c -1.75511,2.647525 -1.43682,6.28723 0.9375,8.666013 L 302.26611,197.38183 c 2.69998,2.70244 7.03206,2.74866 9.6753,0.0952 l 19.1748,-19.20557 c 2.29045,-2.29473 2.5598,-5.85752 0.83789,-8.52685 -0.24073,0.3628 -0.51905,0.70742 -0.83789,1.02685 l -19.1748,19.20557 c -2.64324,2.65344 -6.97532,2.60722 -9.6753,-0.0952 L 194.7334,82.145508 c -0.36118,-0.361859 -0.67146,-0.753665 -0.9375,-1.166016 z m 166.76806,10.624511 a 59.524133,49.220995 45.287235 0 1 -12.32812,27.959477 59.524133,49.220995 45.287235 0 1 -0.31494,0.27979 c -0.12801,0.13554 -0.24576,0.27772 -0.37794,0.41015 l -22.94384,22.98925 c -1.96489,1.96818 -4.27483,3.47526 -6.85108,4.54102 l 4.76515,4.77393 c 0.73082,-0.55553 1.42924,-1.15716 2.08593,-1.81495 l 22.94384,-22.98925 c 0.13218,-0.13243 0.24993,-0.27461 0.37794,-0.41015 a 59.524133,49.220995 45.287235 0 0 0.31494,-0.27979 59.524133,49.220995 45.287235 0 0 12.32812,-35.459477 z" style="opacity:0.3"/> <path d="m 393.14648,30.369141 c -16.06386,0.33167 -30.50215,6.218498 -40.96679,16.703125 -0.42565,0.449738 -0.84366,0.906815 -1.25391,1.371093 l -30.20312,30.259766 c -2.61984,2.624773 -4.62456,5.71037 -6.04297,9.152344 L 297.98047,71.123047 h -0.002 c -3.60023,-3.60708 -9.37309,-3.663759 -12.9043,-0.132813 l -25.5625,25.609375 c -3.05371,3.062926 -3.41331,7.810751 -1.11719,11.371091 0.32098,-0.48399 0.69208,-0.9447 1.11719,-1.37109 l 25.5625,-25.609376 c 3.53121,-3.530946 9.30407,-3.474267 12.9043,0.132813 h 0.002 l 16.69922,16.732422 c 1.41841,-3.44196 3.42313,-6.527571 6.04297,-9.152344 l 30.20312,-30.259766 c 0.41025,-0.464278 0.82826,-0.921355 1.25391,-1.371093 10.46464,-10.484627 24.90293,-16.371455 40.96679,-16.703125 21.71877,-0.448203 44.35294,9.283286 61.4629,26.425781 15.38368,15.454858 24.83795,35.469518 26.14257,55.343748 1.74121,-22.791227 -8.00087,-47.141714 -26.14257,-65.343748 -17.10996,-17.142495 -39.74413,-26.873984 -61.4629,-26.425781 z" transform="scale(0.75)" style="opacity:0.3;fill:rgb(100.000%,100.000%,100.000%)"/> </svg>

<svg width="512" height="512" version="1.1" viewBox="0 0 384 384" xmlns="http://www.w3.org/2000/svg"><g fill="#fff"><path d="m311.37 41.953c-16.391-16.422-39.971-11.429-57.71 6.3426l-144.1 144.37c-11.872 11.894-24.999 17.346-21.704 31.723l-53.368 53.469c-17.739 17.772-12.906 51.231 3.4846 67.652 16.395 16.426 49.786 21.268 67.53 3.4907l53.363-53.464c14.355 3.2959 19.792-9.8513 31.664-21.75l144.1-144.37c17.739-17.772 22.726-41.398 6.3306-57.819z"/><path d="m293.38 89.623c12.372 12.395 14.883 29.983 5.6006 39.283l-100.82 101.01c-9.2827 9.295-26.832 6.784-39.209-5.6163-12.372-12.395-14.883-29.983-5.6006-39.278l100.82-101.01c9.2827-9.3002 26.837-6.7892 39.209 5.6111z"/></g><path transform="scale(.75)" d="m358.24 104.53c-7.4658 0.01125-14.314 2.4487-19.342 7.4863l-134.43 134.68c-6.1663 6.1745-8.4268 15.093-7.1055 24.533 0.84702-5.5723 3.1854-10.608 7.1055-14.533l134.43-134.68c12.377-12.4 35.782-9.0513 52.277 7.4824 8.2752 8.2908 13.242 18.324 14.574 27.83 1.8237-12.022-3.3056-26.54-14.574-37.83-9.7944-9.8169-22.024-14.985-32.936-14.969z" opacity=".2"/><path transform="scale(.75)" d="m467.63 121.8c-1.5108 14.064-9.1901 28.458-21.461 40.752l-192.13 192.49c-15.829 15.865-23.078 33.395-42.219 29l-71.15 71.285c-23.658 23.703-68.179 17.247-90.039-4.6543-11.138-11.159-18.261-28.218-19.449-45.402-1.4331 20.325 6.1438 42.072 19.449 55.402 21.86 21.901 66.381 28.357 90.039 4.6543l71.15-71.285c19.141 4.3946 26.389-13.135 42.219-29l192.13-192.49c15.206-15.234 23.368-33.692 21.461-50.752zm-350.6 166.82c-0.06969 0.28755-0.14394 0.57201-0.20117 0.86524l0.31055-0.31055c-0.04318-0.18841-0.07041-0.36855-0.10938-0.55469z" opacity=".3"/><path transform="scale(.75)" d="m384.95 42.617c-15.898-0.35456-32.687 7.7078-46.73 21.777l-192.13 192.49c-15.673 15.703-32.975 22.992-29.049 41.744 2.9059-11.989 16.498-19.169 29.049-31.744l192.13-192.49c23.651-23.696 55.093-30.352 76.947-8.457l39.453 39.527c7.8062 7.8185 11.96 16.864 13.02 26.34 1.4012-13.044-2.5008-25.804-13.02-36.34l-39.453-39.527c-8.8782-8.895-19.339-13.078-30.217-13.32zm-268.11 256.88-70.846 70.98c-11.597 11.619-15.946 28.268-14.803 44.801 0.92076-13.058 5.551-25.532 14.803-34.801l71.156-71.291c-0.8261-3.6051-0.87642-6.7899-0.31055-9.6894z" opacity=".1"/><path transform="scale(.75)" d="m393.15 30.369a79.366 65.628 45.287 0 0-40.967 16.703 79.366 65.628 45.287 0 0-1.2539 1.3711l-30.203 30.26c-2.6198 2.6248-4.6246 5.7104-6.043 9.1523l-16.699-16.732h-0.00195c-3.6002-3.6071-9.3731-3.6637-12.904-0.13281l-25.562 25.609c-3.5258 3.5364-3.4674 9.3207 0.13281 12.928l143.38 143.65c3.6 3.6032 9.3761 3.6648 12.9 0.12695l25.566-25.607c3.526-3.5326 3.4668-9.3222-0.13281-12.926l-17.691-17.725c3.435-1.421 6.5149-3.4304 9.1348-6.0547l30.592-30.652c0.17622-0.17657 0.33323-0.36614 0.50391-0.54687a79.366 65.628 45.287 0 0 0.41992-0.37305 79.366 65.628 45.287 0 0-9.7051-102.62 79.366 65.628 45.287 0 0-61.463-26.426z" fill="#ffc62f"/><path d="m235.46 177.3c-4.1997-4.2093-10.157-5.064-13.308-1.9069l-17.766 17.799c-4.7665 4.7741-12.409 5.0341-17.488 0.59498l-0.0705 0.0706c-12.276-11.32-28.944-13.385-37.909-4.4032l-100.82 101.01c-9.2831 9.2947-6.7702 26.882 5.6016 39.277 12.377 12.4 29.926 14.913 39.209 5.6179l144.46-144.73c3.1511-3.157 2.2963-9.1258-1.9033-13.333z" fill="#357aef"/><path transform="scale(.75)" d="m317.9 242.26c-0.37645 0.69765-0.84137 1.3462-1.4141 1.9199l-192.61 192.97c-12.377 12.393-35.777 9.0435-52.279-7.4902-8.2769-8.2925-13.243-18.329-14.574-27.836-1.8268 12.021 3.3031 26.544 14.574 37.836 16.503 16.534 39.902 19.884 52.279 7.4902l192.61-192.97c2.8679-2.8733 3.2432-7.4922 1.4141-11.92z" opacity=".3"/><path d="m193.8 80.979c-1.7551 2.6475-1.4368 6.2872 0.9375 8.666l107.53 107.74c2.7 2.7024 7.0321 2.7487 9.6753 0.0952l19.175-19.206c2.2904-2.2947 2.5598-5.8575 0.83789-8.5268-0.24073 0.3628-0.51905 0.70742-0.83789 1.0268l-19.175 19.206c-2.6432 2.6534-6.9753 2.6072-9.6753-0.0952l-107.53-107.74c-0.36118-0.36186-0.67146-0.75366-0.9375-1.166zm166.77 10.625a59.524 49.221 45.287 0 1-12.328 27.959 59.524 49.221 45.287 0 1-0.31494 0.27979c-0.12801 0.13554-0.24576 0.27772-0.37794 0.41015l-22.944 22.989c-1.9649 1.9682-4.2748 3.4753-6.8511 4.541l4.7652 4.7739c0.73082-0.55553 1.4292-1.1572 2.0859-1.815l22.944-22.989c0.13218-0.13243 0.24993-0.27461 0.37794-0.41015a59.524 49.221 45.287 0 0 0.31494-0.27979 59.524 49.221 45.287 0 0 12.328-35.459z" opacity=".3"/><path transform="scale(.75)" d="m393.15 30.369c-16.064 0.33167-30.502 6.2185-40.967 16.703-0.42565 0.44974-0.84366 0.90682-1.2539 1.3711l-30.203 30.26c-2.6198 2.6248-4.6246 5.7104-6.043 9.1523l-16.699-16.732h-2e-3c-3.6002-3.6071-9.3731-3.6638-12.904-0.13281l-25.562 25.609c-3.0537 3.0629-3.4133 7.8108-1.1172 11.371 0.32098-0.48399 0.69208-0.9447 1.1172-1.3711l25.562-25.609c3.5312-3.5309 9.3041-3.4743 12.904 0.13281h2e-3l16.699 16.732c1.4184-3.442 3.4231-6.5276 6.043-9.1523l30.203-30.26c0.41025-0.46428 0.82826-0.92136 1.2539-1.3711 10.465-10.485 24.903-16.371 40.967-16.703 21.719-0.4482 44.353 9.2833 61.463 26.426 15.384 15.455 24.838 35.47 26.143 55.344 1.7412-22.791-8.0009-47.142-26.143-65.344-17.11-17.142-39.744-26.874-61.463-26.426z" fill="#fff" opacity=".3"/></svg>
